frontend/assets/images/logo.svg

<?xml version="1.0" encoding="utf-8"?>
<svg width="54" height="37" viewBox="0 0 54 37" xmlns="http://www.w3.org/2000/svg">
<title>xezoom</title>
<g id="xezoom" stroke="none">
    <path d="M17.1687434,13.0332681 C16.0485134,11.8747554 14.7943427,10.5472929 13.4062316,9.05088063 C12.0181204,7.55446836 10.6543621,6.14253098 9.31495654,4.81506849 C7.97555103,3.487606 6.77008606,2.35322896 5.69856165,1.41193738 C4.62703724,0.470645793 3.87209958,0 3.43374869,0 C2.89798648,0 2.31351862,0.229288976 1.6803451,0.687866928 C1.04717159,1.14644488 0.730584827,1.68949772 0.730584827,2.31702544 C0.730584827,2.94455316 1.03499517,3.8134377 1.64381586,4.92367906 C2.25263655,6.03392042 3.06845627,7.31311155 4.09127503,8.76125245 C5.11409379,10.2093933 6.31955875,11.7782127 7.70766992,13.4677104 C9.09578109,15.1572081 10.5691272,16.8949772 12.1277081,18.6810176 C10.9587724,20.0808871 9.66807254,21.5652316 8.25560854,23.1340509 C6.84314455,24.7028702 5.52809186,26.2113503 4.31045048,27.6594912 C3.0928091,29.1076321 2.06999034,30.4230267 1.24199421,31.6056751 C0.413998069,32.7883235 0,33.6692759 0,34.2485323 C0,34.9243314 0.328763172,35.5518591 0.986289516,36.1311155 C1.64381586,36.7103718 2.31351862,37 2.99539779,37 C3.57986565,37 4.22521558,36.7586432 4.93144758,36.2759295 C5.63767958,35.7932159 6.52655779,35.0329419 7.5980822,33.9951076 C8.66960661,32.9572733 9.97248289,31.6298108 11.506711,30.0127202 C13.0409392,28.3956295 15.9023964,25.4191636 17.0956849,24.183953 C18.2889735,22.9487425 18.2889735,14.1917808 17.1687434,13.0332681 Z" id="x" transform="translate(9.000000, 18.500000) rotate(-360.000000) translate(-9.000000, -18.500000) "/>
    <path d="M39.4080338,37 C40.6060606,37 41.9957717,36.9161812 43.577167,36.7485437 C45.1585624,36.5809061 46.6560958,36.2695793 48.0697674,35.8145631 C49.483439,35.3595469 50.6814658,34.7488673 51.6638478,33.9825243 C52.6462297,33.2161812 53.1374207,32.2343042 53.1374207,31.0368932 C53.1374207,30.0789644 52.8259338,29.3964401 52.2029598,28.9893204 C51.5799859,28.5822006 50.9330514,28.3786408 50.2621564,28.3786408 C49.7350247,28.3786408 49.1599718,28.4624595 48.5369979,28.6300971 C47.914024,28.7977346 47.1952079,28.9893204 46.3805497,29.2048544 C45.5658915,29.4203883 44.6194503,29.6119741 43.5412262,29.7796117 C42.4630021,29.9472492 41.2529951,30.031068 39.9112051,30.031068 C36.1733615,30.031068 33.3100775,29.2886731 31.3213531,27.8038835 C29.3326286,26.3190939 28.1226216,24.1158576 27.6913319,21.1941748 C29.8477801,22.0563107 31.8484848,22.6190939 33.6934461,22.8825243 C35.5384073,23.1459547 37.2995067,23.2776699 38.9767442,23.2776699 C41.2290345,23.2776699 43.2776603,23.0860841 45.1226216,22.7029126 C46.9675828,22.3197411 48.5489782,21.7210356 49.8668076,20.9067961 C51.1846371,20.0925566 52.2029598,19.0148867 52.9217759,17.6737864 C53.640592,16.3326861 54,14.7042071 54,12.7883495 C54,10.6330097 53.5567301,8.75307443 52.6701903,7.14854369 C51.7836505,5.54401294 50.6095842,4.21488673 49.1479915,3.16116505 C47.6863989,2.10744337 46.0091614,1.3171521 44.1162791,0.790291262 C42.2233968,0.263430421 40.2706131,0 38.2579281,0 C35.6701903,0 33.2621564,0.407119741 31.0338266,1.22135922 C28.8054968,2.03559871 26.8766737,3.23300971 25.2473573,4.81359223 C23.6180409,6.39417476 22.3361522,8.33398058 21.4016913,10.6330097 C20.4672304,12.9320388 20,15.566343 20,18.5359223 C20,21.6012945 20.4792107,24.2834951 21.4376321,26.5825243 C22.3960536,28.8815534 23.7378436,30.8093851 25.4630021,32.3660194 C27.1881607,33.9226537 29.2367865,35.0841424 31.6088795,35.8504854 C33.9809725,36.6168285 36.5806906,37 39.4080338,37 Z M38.4016913,17.6737864 C36.4848485,17.6737864 34.6638478,17.518123 32.9386892,17.2067961 C31.2135307,16.8954693 29.440451,16.3326861 27.6194503,15.5184466 C27.8590557,13.8420712 28.3143058,12.4411003 28.9852008,11.315534 C29.6560958,10.1899676 30.4827343,9.27993528 31.4651163,8.58543689 C32.4474982,7.89093851 33.5377026,7.38802589 34.7357294,7.07669903 C35.9337562,6.76537217 37.179704,6.60970874 38.4735729,6.60970874 C41.4446794,6.60970874 43.5651868,7.23236246 44.8350951,8.4776699 C46.1050035,9.72297735 46.7399577,11.1838188 46.7399577,12.8601942 C46.7399577,14.6802589 46.0570825,15.9375405 44.6913319,16.6320388 C43.3255814,17.3265372 41.2290345,17.6737864 38.4016913,17.6737864 Z" id="e"/>
</g>
</svg>

<svg width="54" height="37" xmlns="http://www.w3.org/2000/svg"><path d="M17.169 13.033a267.07 267.07 0 01-3.763-3.982 140.354 140.354 0 00-4.091-4.236 83.79 83.79 0 00-3.616-3.403C4.627.47 3.872 0 3.434 0c-.536 0-1.12.23-1.754.688-.633.458-.95 1.001-.95 1.629 0 .628.305 1.496.914 2.607.609 1.11 1.424 2.39 2.447 3.837a82.15 82.15 0 003.617 4.707 230.294 230.294 0 004.42 5.213c-1.17 1.4-2.46 2.884-3.872 4.453A177.735 177.735 0 004.31 27.66c-1.217 1.449-2.24 2.764-3.068 3.947C.414 32.788 0 33.669 0 34.249c0 .675.329 1.303.986 1.882.658.58 1.328.869 2.01.869.584 0 1.23-.241 1.935-.724.707-.483 1.596-1.243 2.667-2.28a136.088 136.088 0 003.909-3.983c1.534-1.617 4.395-4.594 5.589-5.829 1.193-1.235 1.193-9.992.073-11.15zM39.408 37c1.198 0 2.588-.084 4.17-.251a22.298 22.298 0 004.492-.934c1.413-.455 2.611-1.066 3.594-1.832.982-.767 1.473-1.749 1.473-2.946 0-.958-.311-1.64-.934-2.048-.623-.407-1.27-.61-1.94-.61-.528 0-1.103.083-1.726.251-.623.168-1.342.36-2.156.575a28.09 28.09 0 01-2.84.575c-1.078.167-2.288.251-3.63.251-3.738 0-6.6-.742-8.59-2.227-1.988-1.485-3.198-3.688-3.63-6.61 2.157.862 4.157 1.425 6.002 1.689 1.845.263 3.607.395 5.284.395 2.252 0 4.3-.192 6.146-.575 1.845-.383 3.426-.982 4.744-1.796a8.422 8.422 0 003.055-3.233C53.64 16.333 54 14.704 54 12.788c0-2.155-.443-4.035-1.33-5.64a12.007 12.007 0 00-3.522-3.987c-1.462-1.054-3.139-1.844-5.032-2.37A21.745 21.745 0 0038.258 0c-2.588 0-4.996.407-7.224 1.221-2.229.815-4.157 2.012-5.787 3.593-1.629 1.58-2.91 3.52-3.845 5.819S20 15.566 20 18.536c0 3.065.48 5.747 1.438 8.047.958 2.299 2.3 4.226 4.025 5.783 1.725 1.557 3.774 2.718 6.146 3.484 2.372.767 4.972 1.15 7.799 1.15zm-1.006-19.326c-1.917 0-3.738-.156-5.463-.467-1.725-.312-3.499-.874-5.32-1.689.24-1.676.695-3.077 1.366-4.202.671-1.126 1.498-2.036 2.48-2.73a9.949 9.949 0 013.27-1.51 14.802 14.802 0 013.739-.466c2.97 0 5.091.622 6.361 1.868 1.27 1.245 1.905 2.706 1.905 4.382 0 1.82-.683 3.078-2.049 3.772-1.365.695-3.462 1.042-6.29 1.042z"/></svg>
